X:1
T:"Bruckless Shore" (The Swedsh Jig)
C:Jig composed by Arthur Darley
L:1/8
Q:360
K:D
M:6/8
z3 A3 |: AGF EDC | D3 d2e | fgf edc | d3 d2e | fgf edc | dAA BAG | FED EDC | DA,B, CDE | \
Ddd Aee | Aff Agg | fed edc |1 d3 A3 :|2 d2d d=c^A |: A=ff fef | A=ff fef | A=ff Agg | \
Aaa A_bb | A=ff fef | A=ff f2g | =fed ed^c |1 d2d d=c^A :|2 d3 z2e |: fgf edc | dAA BAG | \
FED EDC | DA,B, CDE | Ddd Aee | Aff Agg | fed edc |1 d3 z2e :|2 d6 | \
